packages/blockchain-info-components/src/Images/img/swap.svg

<svg fill="none" height="24" viewBox="0 0 24 24" width="24" xmlns="http://www.w3.org/2000/svg" xmlns:xlink="http://www.w3.org/1999/xlink"><clipPath id="a"><path d="m0 0h24v24h-24z"/></clipPath><g clip-path="url(#a)" fill="#121d33"><path d="m9.00101 10.2728v-3.12617c0-.51973.41802-.93785.93762-.93785h6.56337v-3.42705c0-.69557.8399-1.04336 1.3322-.55099l5.946 5.94361c.2931.29308.2931.77373 0 1.06681l-5.946 5.95144c-.4923.4924-1.3322.1446-1.3322-.551v-3.431h-6.56337c-.5196 0-.93762-.4181-.93762-.9378z"/><path d="m14.999 13.3634v3.1262c0 .5197-.418.9378-.9376.9378h-6.56337v3.4271c0 .6956-.83995 1.0433-1.3322.551l-5.946075-5.9436c-.2930066-.2931-.2930066-.7738 0-1.0668l5.946075-5.95147c.49225-.49237 1.3322-.14458 1.3322.55099v3.43098h6.56337c.5196 0 .9376.4181.9376.9378z"/></g></svg>

<svg width="24" height="24" viewBox="0 0 24 24" fill="none" xmlns="http://www.w3.org/2000/svg">
<g clip-path="url(#clip0_452:14499)">
<path d="M9.00101 10.2728V7.14663C9.00101 6.6269 9.41903 6.20878 9.93863 6.20878L16.502 6.20878V2.78173C16.502 2.08616 17.3419 1.73837 17.8342 2.23074L23.7802 8.17435C24.0733 8.46743 24.0733 8.94808 23.7802 9.24116L17.8342 15.1926C17.3419 15.685 16.502 15.3372 16.502 14.6416V11.2106H9.93863C9.41903 11.2106 9.00101 10.7925 9.00101 10.2728Z" fill="#121D33"/>
<path d="M14.999 13.3634V16.4896C14.999 17.0093 14.581 17.4274 14.0614 17.4274H7.49803V20.8545C7.49803 21.5501 6.65808 21.8978 6.16583 21.4055L0.219755 15.4619C-0.0732516 15.1688 -0.0732516 14.6881 0.219755 14.3951L6.16583 8.44363C6.65808 7.95126 7.49803 8.29905 7.49803 8.99462L7.49803 12.4256H14.0614C14.581 12.4256 14.999 12.8437 14.999 13.3634Z" fill="#121D33"/>
</g>
<defs>
<clipPath id="clip0_452:14499">
<rect width="24" height="24" fill="white"/>
</clipPath>
</defs>
</svg>
